X:80
T:Niddlety noddlety
Z:Jack Campin - http://www.campin.me.uk
S:Blaikie MS (NLS MS.1578) p24, Blaikie #74
M:6/8
L:1/8
V:1 midi program 1 74
V:2 midi program 1 46 bass middle = d transpose -24
Q:3/8=96
K:F# Dorian % keysig in MS is minor
[V:1] C|C2F F2 F|GAF E3 |CFF FFF|e3  c2B|ccf edc|
[V:2] z|F3  f3  |e3  e3 |F3  f3 |g3  a2e|A3  a3 |
%
[V:1]   BBA G2 G|FGF FEC|C2A A2B|FGF FEC|G2A F2|]
[V:2]   g2f e2^e|f3  f3 |F3  f2z|F3  f3 |c3  f2|]
W:Transcription (c) Jack Campin 2009, no mirroring or republication without permission

